assets/icons/office.svg

<?xml version="1.0" encoding="utf-8"?>
<!-- Generated by IcoMoon.io -->
<!DOCTYPE svg PUBLIC "-//W3C//DTD SVG 1.1//EN" "http://www.w3.org/Graphics/SVG/1.1/DTD/svg11.dtd">
<svg version="1.1" xmlns="http://www.w3.org/2000/svg" xmlns:xlink="http://www.w3.org/1999/xlink" width="16" height="16" viewBox="0 0 16 16">
<path d="M0 16h8v-16h-8v16zM5 2h2v2h-2v-2zM5 6h2v2h-2v-2zM5 10h2v2h-2v-2zM1 2h2v2h-2v-2zM1 6h2v2h-2v-2zM1 10h2v2h-2v-2zM9 5h7v1h-7zM9 16h2v-4h3v4h2v-9h-7z"/>
</svg>

<svg xmlns="http://www.w3.org/2000/svg" width="16" height="16"><path d="M0 16h8V0H0v16zM5 2h2v2H5V2zm0 4h2v2H5V6zm0 4h2v2H5v-2zM1 2h2v2H1V2zm0 4h2v2H1V6zm0 4h2v2H1v-2zm8-5h7v1H9zm0 11h2v-4h3v4h2V7H9z"/></svg>
